X:32
T:Planxty Burke
R:carolan
C:Turlough O'Carolan (1670-1738)
Z:id:hn-carolan-32
M:3/4
L:1/8
K:Edor
B2 | E3FGA | B4A2 | G2B2G2 | A2F2D2 | D2F2D2 | d2F2D2 | DEF2D2 | A2F2D2 |
EFG2E2 | B2G2E2 | EFG2E2 | e2G2E2 | d4d2 | d2e2f2 | d6 | B4 :|
|: de | f2e2d2 | e2d2c2 | d2c2B2 | A2B2c2 | d2c2B2 | e2d2c2 | d2c2B2 | A2F2D2 |
EFG2E2 | B2G2E2 | E2G2E2 | B2G2E2 | d4d2 | d2e2f2 | d6 | B4 :|
|: A2 | Bcd2d2 | d2edc2 | d2edcB | A2F2D2 | E4e2 | e2fed2 | e2B2c2 | d4de |
f2e2d2 | c2B2A2 | Bcd2B2 | A2F2D2 | d4A2 | Bcd2A2 | G6 | E4 :| 



